X: 8
T: The Rothesay Rant
T: 4x32J4
C: Anna Campbell Holden
B: Birmingham Branch RSCDS "Scottish Country Dances" #11
B: Collins Pocket Reference #236
B: Scottish Country Dances in Diagrams. Ed. 7 #139
B: Scottish Country Dances in Diagrams. Ed. 6 #129
B: Scottish Country Dances in Diagrams. Ed. 8 #164
P: Play 1-1-2
R: jig
P: The Rothesay Rant
C: Beryl S Johnston
R: jig
B: Birmingham Branch RSCDS "Scottish Country Dances" #11
Z: 1997 by John Chambers <jc:trillian.mit.edu>
N: 2nd part lowered an octave into normal range
M: 6/8
L: 1/8
K: F
   c \
| "F"{de}f2e d2c | "Bb"d2c d2f | "F"c2A A2f | "C7"A2G G2c \
| "F"f2e f2g | "F"a3 f2a | "Bb"g2f "(C7)"f2d | "F"f3- f2 :|
|: c \
| "F"A2F F2c | "F"A2F F2c | "Bb"d2c "F"A2F | "C7"G2c c2 c \
| "Bb" {cde}f2e d2c | "Gm"d2c B2A | "C7"G2d d2E | "F"F3- F2 :| [K:Bb]
|: F/F/ \
| "Bb"d3 d2d | "F7"c3 c2c | "Eb"B2c B2G | "Bb"FD2 D2F \
| "F7"e3 e2e | "Bb"d3 f2g | "Bb"f2d B2d | "F7"c3 f2e |
| "Bb"d3 f2d | "F"c3 f2e | "Bb"d2f "/A"c2d | "Gm"B2A G2F \
| "Eb"G2B e2g | "Eb"b<bz "F7"a2g | "Bb"f2d "F7"d2c | "Bb"B3- B2 :|
P: The Directors
C: unknown
O: attr. Andrew Rankine
O: attr. Bert Murray
R: jig
Z: John Chambers <jc:trillian.mit.edu>
M: 6/8
L: 1/8
K: G
GBd \
| "G"e2d ^c2d | B3 GBd | e2d ^c2d | "Am"c3- c3 \
| "D7"f3- e2z | f3- e2z |1 f2e d2c | "G"B3 :|2 "D7"d2d def | "G"g3 |][K:=f]
K: C
g^f=f \
| "C"e3 ^d2e | G3- G3 | GAB "(D7)"cBA | "G"B3- B2G \
| "G7"f3 e2f | G3- G3 | GAB cd^d | "C"e3- e3 |
| "C"e3 ^d2e | G3- G3 | "C7"GAB cde | "F"f3 A3 \
| A^GA f2A | "C"G^FG e2c | "G7"B^AB e2d | "C"c3 |]
%%sep 3 1 530
%%sep 1 1 530
%%text The Directors is a very popular alternate tune for this dance.

%%sep 5 1 500
%%sep 1 1 500

